X:490
T: Down the Gort Road
S: B.Breathnach:"Ceol Rince na hEireann" IV/179 (gan ainm)
Z: B.Black
L: 1/8
M: 4/4
R: reel
K: G
d2 GA B2 AG|FGAc A4|d2 GA B2 AG|FAdc BG G2 :|
dggf g4|fgaf g3a|bgaf g2 ag|fdcA AG G2 :|
